src/icons/services/webdev.svg

<svg width="52" height="52" viewBox="0 0 52 52" fill="none" xmlns="http://www.w3.org/2000/svg">
<g clip-path="url(#clip0_247_348)">
<path d="M38.5376 15.4375L38.9438 14.5437L39.3501 15.4375C39.6751 16.1687 40.4063 16.575 41.2188 16.575C42.0313 16.575 42.6813 16.1687 43.0876 15.4375L45.1188 11.2937C45.6063 10.4 45.2001 9.26246 44.3063 8.85621C43.4126 8.44996 42.2751 8.77496 41.8688 9.66871L41.2188 10.8875L40.8126 9.99371C40.4876 9.26246 39.7563 8.85621 38.9438 8.85621C38.1313 8.85621 37.4813 9.26246 37.0751 9.99371L36.6688 10.8875L36.1001 9.58746C35.6126 8.69371 34.5563 8.28746 33.6626 8.77496C33.1751 9.01871 32.8501 9.50621 32.6876 9.99371C32.6063 9.50621 32.2001 9.01871 31.7126 8.77496C30.8188 8.28746 29.6813 8.69371 29.2751 9.58746L28.6251 10.8062L28.2188 9.91246C27.8938 9.18121 27.1626 8.77496 26.3501 8.77496C25.5376 8.77496 24.8876 9.18121 24.4813 9.91246L24.0751 10.8062L23.4251 9.58746C22.9376 8.69371 21.8813 8.28746 20.9876 8.77496C20.5001 9.01871 20.1751 9.50621 20.0126 9.99371C19.9313 9.50621 19.5251 9.01871 19.0376 8.77496C18.1438 8.28746 17.0063 8.69371 16.6001 9.58746L15.9501 10.8062L15.5438 9.91246C15.2188 9.18121 14.4876 8.77496 13.6751 8.77496C12.8626 8.77496 12.2126 9.18121 11.8063 9.91246L11.4001 10.8062L10.7501 9.58746C10.2626 8.69371 9.2063 8.28746 8.31255 8.77496C7.4188 9.26246 7.01255 10.3187 7.50005 11.2125L9.5313 15.3562C9.8563 16.0875 10.5876 16.4937 11.4001 16.4937C12.2126 16.4937 12.8626 16.0875 13.2688 15.3562L13.6751 14.4625L14.0813 15.3562C14.4063 16.0875 15.1376 16.4937 15.9501 16.4937C16.7626 16.4937 17.4126 16.0875 17.8188 15.3562L19.8501 11.2125C19.9313 11.05 19.9313 10.9687 20.0126 10.8062C20.0126 10.9687 20.0938 11.05 20.1751 11.2125L22.2063 15.3562C22.5313 16.0875 23.2626 16.4937 24.0751 16.4937C24.8876 16.4937 25.5376 16.0875 25.9438 15.3562L26.3501 14.4625L26.7563 15.3562C27.0813 16.0875 27.8126 16.4937 28.6251 16.4937C29.4376 16.4937 30.0876 16.0875 30.4938 15.3562L32.5251 11.2125C32.6063 11.05 32.6063 10.9687 32.6876 10.8062C32.6876 10.9687 32.7688 11.05 32.8501 11.2125L34.8813 15.3562C35.2063 16.0875 35.9376 16.4937 36.7501 16.4937C37.4813 16.575 38.2126 16.0875 38.5376 15.4375Z" fill="#9D74D3"/>
<path d="M47.8 0H4.9C2.70625 0 1 1.7875 1 3.98125V21.2063C1 23.4 2.7875 25.1875 4.9 25.1875H30.6562C31.6313 25.1875 32.525 24.375 32.525 23.3188C32.525 22.2625 31.7125 21.45 30.6562 21.45H4.9C4.7375 21.45 4.65625 21.2875 4.65625 21.125V3.98125C4.65625 3.81875 4.7375 3.65625 4.9 3.65625H47.8813C48.0438 3.65625 48.125 3.81875 48.125 3.98125V21.2063C48.125 21.3688 47.9625 21.5312 47.8 21.5312C46.825 21.5312 45.9312 22.3438 45.9312 23.4C45.9312 24.4562 46.7438 25.2688 47.8 25.2688C49.9938 25.2688 51.7812 23.4813 51.7812 21.2875V3.98125C51.7812 1.7875 49.9938 0 47.8 0Z" fill="#9D74D3"/>
<path d="M50.1561 29.7376L38.6999 23.9688C37.7249 23.4813 36.5874 23.6438 35.9374 24.3751C35.2061 25.1063 35.0436 26.2438 35.5311 27.2188L41.2999 38.6751C41.7874 39.5688 42.6811 40.2188 43.7374 40.2188H43.8186C44.7124 40.2188 45.5249 39.6501 45.8499 38.8376L47.2311 35.6688L50.3999 34.2876C51.2124 33.9626 51.6999 33.1501 51.7811 32.2563C51.6999 31.1188 51.1311 30.1438 50.1561 29.7376ZM44.3874 32.8251L43.4936 34.8563L40.4874 28.9251L46.4186 31.9313L44.3874 32.8251Z" fill="#9D74D3"/>
</g>
<defs>
<clipPath id="clip0_247_348">
<rect width="52" height="52" fill="white"/>
</clipPath>
</defs>
</svg>

<svg xmlns="http://www.w3.org/2000/svg" width="52" height="52" fill="none"  ><g clip-path="url(#A)" fill="#9d74d3"><path d="M38.538 15.438l.406-.894.406.894c.325.731 1.056 1.137 1.869 1.137s1.462-.406 1.869-1.137l2.031-4.144a1.78 1.78 0 0 0-.812-2.437c-.894-.406-2.031-.081-2.437.813l-.65 1.219-.406-.894c-.325-.731-1.056-1.137-1.869-1.137s-1.463.406-1.869 1.137l-.406.894-.569-1.3c-.487-.894-1.544-1.3-2.437-.812-.487.244-.812.731-.975 1.219-.081-.488-.488-.975-.975-1.219a1.78 1.78 0 0 0-2.437.813l-.65 1.219-.406-.894c-.325-.731-1.056-1.137-1.869-1.137s-1.463.406-1.869 1.137l-.406.894-.65-1.219c-.488-.894-1.544-1.3-2.437-.812-.488.244-.812.731-.975 1.219-.081-.488-.488-.975-.975-1.219a1.78 1.78 0 0 0-2.437.813l-.65 1.219-.406-.894c-.325-.731-1.056-1.137-1.869-1.137s-1.463.406-1.869 1.137l-.406.894-.65-1.219c-.487-.894-1.544-1.3-2.438-.812s-1.3 1.544-.812 2.438l2.031 4.144c.325.731 1.056 1.138 1.869 1.138s1.463-.406 1.869-1.138l.406-.894.406.894c.325.731 1.056 1.138 1.869 1.138s1.463-.406 1.869-1.138l2.031-4.144c.081-.162.081-.244.162-.406 0 .162.081.244.163.406l2.031 4.144c.325.731 1.056 1.138 1.869 1.138s1.463-.406 1.869-1.138l.406-.894.406.894c.325.731 1.056 1.138 1.869 1.138s1.462-.406 1.869-1.138l2.031-4.144c.081-.162.081-.244.163-.406 0 .162.081.244.162.406l2.031 4.144c.325.731 1.056 1.138 1.869 1.138.731.081 1.462-.406 1.787-1.056zM47.8 0H4.9C2.706 0 1 1.788 1 3.981v17.225c0 2.194 1.788 3.981 3.9 3.981h25.756c.975 0 1.869-.812 1.869-1.869s-.812-1.869-1.869-1.869H4.9c-.163 0-.244-.162-.244-.325V3.981c0-.163.081-.325.244-.325h42.981c.162 0 .244.163.244.325v17.225a.35.35 0 0 1-.325.325c-.975 0-1.869.813-1.869 1.869s.813 1.869 1.869 1.869a3.99 3.99 0 0 0 3.981-3.981V3.981A3.99 3.99 0 0 0 47.8 0zm2.356 29.738L38.7 23.969c-.975-.488-2.112-.325-2.763.406-.731.731-.894 1.869-.406 2.844L41.3 38.675c.487.894 1.381 1.544 2.438 1.544h.081c.894 0 1.706-.569 2.031-1.381l1.381-3.169 3.169-1.381c.813-.325 1.3-1.137 1.381-2.031-.081-1.138-.65-2.113-1.625-2.519zm-5.769 3.087l-.894 2.031-3.006-5.931 5.931 3.006-2.031.894z"/></g><defs><clipPath id="A"><path fill="#fff" d="M0 0h52v52H0z"/></clipPath></defs></svg>
